X:67
T:Rosemary Lane - Crossing
C:Taken down on Dartmoor abt. 1858 by W. Crossing.
%%VWML:SBG-1-1-311-0
F:http://www.vwml.org/record/SBG/1/1/311
Z:Original Sibleius Transcription by Martin and Shan Graebe
L:1/8
M:3/8
I:linebreak $
K:C
E | A G A | C D E | F c B | A2 A/B/ | c c c | B2 E/ G/ | A G ^F |$ E2 E | A c e | c2 A/ B/ | 
c d F | E2 E | A G E | F F F | (E ^F) ^G | A3 |] 
T:T:Rosemary Lane - Parsons
T:Taken down from Jas. Parsons by F.W.B. Mch. 1891
L:1/4
M:3/4
I:linebreak $
K:C
G | c G E | E F G | A d B | G2 G | c c G | A E F | G A A | c2 c |$ d g f | e c c | A f d | B2 G | 
c c G | A G F | G A B | c3 |] 
T:Rosemary Lane - Luxton
T:Taken down from Roger Luxton by H.Fl.S.
L:1/4
M:3/4
I:linebreak $
K:Bb
F | B B F | D D F | G e d/c/ | B A F | f d B | G E G | F G A | B d e/f/ |$ g3/2 c/d/e/ | f2 c | 
e/d/ c/B/ A/G/ | F2 f | d B G | E2 G | F2 G/A/ | B2 |] 



